assets/img/home/bath-icon.svg

<?xml version="1.0" encoding="UTF-8"?>
<svg width="16px" height="16px" viewBox="0 0 16 16" version="1.1" xmlns="http://www.w3.org/2000/svg" xmlns:xlink="http://www.w3.org/1999/xlink">
    <!-- Generator: Sketch 52.4 (67378) - http://www.bohemiancoding.com/sketch -->
    <title>bath-icon</title>
    <desc>Created with Sketch.</desc>
    <g id="Pages" stroke="none" stroke-width="1" fill="none" fill-rule="evenodd">
        <g id="Home-Page_sm-Copy" transform="translate(-226.000000, -2226.000000)" fill="#FFFFFF">
            <g id="Group-15" transform="translate(16.000000, 2221.000000)">
                <g id="Group-20" transform="translate(198.000000, 0.000000)">
                    <g id="bath-icon" transform="translate(12.000000, 5.000000)">
                        <path d="M15.04,8.2155102 L13.42976,8.2155102 L13.42976,2.19069388 C13.42976,1.79967347 13.31968,1.41893878 13.112,1.09028571 C12.7776,0.562122449 12.2336,0.227102041 11.61952,0.171265306 C11.00928,0.115918367 10.41232,0.346612245 9.99136,0.806204082 L9.51712,1.3237551 C8.60864,1.39983673 7.89168,2.17730612 7.89168,3.1237551 C7.89168,3.304 8.03488,3.45028571 8.21168,3.45028571 L11.1144,3.45028571 C11.2912,3.45028571 11.4344,3.304 11.4344,3.1237551 C11.4344,2.35281633 10.95808,1.69502041 10.29072,1.43559184 L10.45888,1.25208163 C10.74416,0.940734694 11.14768,0.783346939 11.56256,0.821714286 C11.97888,0.859428571 12.34752,1.08669388 12.5744,1.44457143 C12.71536,1.66726531 12.78976,1.92522449 12.78976,2.19053061 L12.78976,8.2155102 L0.96,8.2155102 C0.43056,8.2155102 0,8.65485714 0,9.19510204 L0,9.86628571 C0,10.0466939 0.1432,10.1928163 0.32,10.1928163 L0.8784,10.1928163 L1.17232,11.2125714 C1.49904,12.3461224 2.28608,13.2561633 3.2848,13.7598367 C2.92192,14.290449 2.72128,14.9288163 2.72128,15.5769796 C2.72128,15.7573878 2.86448,15.9035102 3.04128,15.9035102 C3.21792,15.9035102 3.36128,15.7573878 3.36128,15.5769796 C3.36128,15.0222041 3.54448,14.4746122 3.8936,14.0112653 L3.896,14.0075102 C4.27216,14.1252245 4.66752,14.1911837 5.0736,14.1911837 L7.6976,14.1911837 L8.30224,14.1911837 L10.85312,14.1911837 C11.28208,14.1911837 11.69952,14.1201633 12.09552,13.9921633 L12.12304,14.0355918 C12.45552,14.4749388 12.63872,15.0225306 12.63872,15.5769796 C12.63872,15.7573878 12.78192,15.9035102 12.95872,15.9035102 C13.13552,15.9035102 13.27872,15.7573878 13.27872,15.5769796 C13.27872,14.9128163 13.06816,14.2587755 12.70176,13.7410612 C13.71632,13.2235102 14.5152,12.2951837 14.848,11.140898 L15.12128,10.1928163 L15.68,10.1928163 C15.8568,10.1928163 16,10.0466939 16,9.86628571 L16,9.19510204 C16,8.65485714 15.56944,8.2155102 15.04,8.2155102 Z M10.74848,2.79722449 L8.5776,2.79722449 C8.716,2.31918367 9.15008,1.96930612 9.66288,1.96930612 C10.17568,1.96930612 10.61008,2.31934694 10.74848,2.79722449 Z M14.2344,10.9564082 C13.796,12.4764082 12.4056,13.5379592 10.85312,13.5379592 L8.30224,13.5379592 L7.6976,13.5379592 L5.0736,13.5379592 C3.56416,13.5379592 2.21232,12.5057959 1.7864,11.0280816 L1.5456,10.1928163 L14.45456,10.1928163 L14.2344,10.9564082 Z M15.36,9.5397551 L0.64,9.5397551 L0.64,9.19510204 C0.64,9.01485714 0.78352,8.86857143 0.96,8.86857143 L15.04,8.86857143 C15.21664,8.86857143 15.36,9.01485714 15.36,9.19510204 L15.36,9.5397551 Z" id="Shape" fill-rule="nonzero"></path>
                        <path d="M7.93696,7.12702041 C7.93696,7.30726531 8.08032,7.45355102 8.25696,7.45355102 C8.43376,7.45355102 8.57696,7.30726531 8.57696,7.12702041 L8.57696,6.8004898 C8.57696,6.6202449 8.43376,6.47395918 8.25696,6.47395918 C8.08032,6.47395918 7.93696,6.6202449 7.93696,6.8004898 L7.93696,7.12702041 Z" id="Path"></path>
                        <path d="M7.93696,5.82089796 C7.93696,6.00114286 8.08032,6.14742857 8.25696,6.14742857 C8.43376,6.14742857 8.57696,6.00114286 8.57696,5.82089796 L8.57696,5.49436735 C8.57696,5.31412245 8.43376,5.16783673 8.25696,5.16783673 C8.08032,5.16783673 7.93696,5.31395918 7.93696,5.49436735 L7.93696,5.82089796 Z" id="Path"></path>
                        <path d="M8.25696,4.84130612 C8.43376,4.84130612 8.57696,4.69518367 8.57696,4.51477551 L8.57696,4.1882449 C8.57696,4.008 8.43376,3.86171429 8.25696,3.86171429 C8.08032,3.86171429 7.93696,4.00783673 7.93696,4.1882449 L7.93696,4.51477551 C7.93696,4.69502041 8.08016,4.84130612 8.25696,4.84130612 Z" id="Path"></path>
                        <path d="M10.65824,7.12702041 C10.65824,7.30726531 10.80144,7.45355102 10.97824,7.45355102 C11.15504,7.45355102 11.29824,7.30726531 11.29824,7.12702041 L11.29824,6.8004898 C11.29824,6.6202449 11.15504,6.47395918 10.97824,6.47395918 C10.80144,6.47395918 10.65824,6.6202449 10.65824,6.8004898 L10.65824,7.12702041 Z" id="Path"></path>
                        <path d="M10.97824,4.84130612 C11.15504,4.84130612 11.29824,4.69518367 11.29824,4.51477551 L11.29824,4.1882449 C11.29824,4.008 11.15504,3.86171429 10.97824,3.86171429 C10.80144,3.86171429 10.65824,4.00783673 10.65824,4.1882449 L10.65824,4.51477551 C10.65824,4.69502041 10.80128,4.84130612 10.97824,4.84130612 Z" id="Path"></path>
                        <path d="M10.65824,5.82089796 C10.65824,6.00114286 10.80144,6.14742857 10.97824,6.14742857 C11.15504,6.14742857 11.29824,6.00114286 11.29824,5.82089796 L11.29824,5.49436735 C11.29824,5.31412245 11.15504,5.16783673 10.97824,5.16783673 C10.80144,5.16783673 10.65824,5.31395918 10.65824,5.49436735 L10.65824,5.82089796 Z" id="Path"></path>
                        <path d="M9.57232,4.84130612 C9.74912,4.84130612 9.89232,4.69518367 9.89232,4.51477551 L9.89232,4.1882449 C9.89232,4.008 9.74912,3.86171429 9.57232,3.86171429 C9.39552,3.86171429 9.25232,4.00783673 9.25232,4.1882449 L9.25232,4.51477551 C9.25232,4.69502041 9.39536,4.84130612 9.57232,4.84130612 Z" id="Path"></path>
                        <path d="M9.25232,7.12702041 C9.25232,7.30726531 9.39552,7.45355102 9.57232,7.45355102 C9.74912,7.45355102 9.89232,7.30726531 9.89232,7.12702041 L9.89232,6.8004898 C9.89232,6.6202449 9.74912,6.47395918 9.57232,6.47395918 C9.39552,6.47395918 9.25232,6.6202449 9.25232,6.8004898 L9.25232,7.12702041 Z" id="Path"></path>
                        <path d="M9.25232,5.82089796 C9.25232,6.00114286 9.39552,6.14742857 9.57232,6.14742857 C9.74912,6.14742857 9.89232,6.00114286 9.89232,5.82089796 L9.89232,5.49436735 C9.89232,5.31412245 9.74912,5.16783673 9.57232,5.16783673 C9.39552,5.16783673 9.25232,5.31395918 9.25232,5.49436735 L9.25232,5.82089796 Z" id="Path"></path>
                    </g>
                </g>
            </g>
        </g>
    </g>
</svg>

<?xml version="1.0" encoding="UTF-8" standalone="no"?>
<svg xmlns="http://www.w3.org/2000/svg" height="16px" width="16px" version="1.1" xmlns:xlink="http://www.w3.org/1999/xlink" viewBox="0 0 16 16"><!-- Generator: Sketch 52.4 (67378) - http://www.bohemiancoding.com/sketch -->
 <title>bath-icon</title>
 <desc>Created with Sketch.</desc>
 <g id="Pages" fill-rule="evenodd" fill="none">
  <g id="Home-Page_sm-Copy" fill="#fff" transform="translate(-226 -2226)">
   <g id="Group-15" transform="translate(16 2221)">
    <g id="Group-20" transform="translate(198)">
     <g id="bath-icon" transform="translate(12 5)">
      <path id="Shape" fill-rule="nonzero" d="m15.04 8.2155h-1.61v-6.0248c0-0.391-0.11-0.7718-0.318-1.1004-0.334-0.52818-0.878-0.8632-1.492-0.91903-0.611-0.05535-1.208 0.17534-1.6286 0.63493l-0.4743 0.5176c-0.9085 0.076-1.6254 0.8535-1.6254 1.8 0 0.1802 0.1432 0.3265 0.32 0.3265h2.9023c0.177 0 0.32-0.1463 0.32-0.3265 0-0.771-0.476-1.4288-1.143-1.6882l0.168-0.1835c0.285-0.31137 0.689-0.46875 1.104-0.43039 0.416 0.03772 0.785 0.26499 1.011 0.62289 0.141 0.2227 0.216 0.4806 0.216 0.7459v6.025h-11.83c-0.52944 0-0.96 0.4394-0.96 0.9796v0.6712c0 0.1807 0.1432 0.3267 0.32 0.3267h0.5584l0.2939 1.02c0.3267 1.133 1.1138 2.043 2.1125 2.547-0.3629 0.53-0.5635 1.169-0.5635 1.817 0 0.18 0.1432 0.327 0.32 0.327 0.1766 0 0.32-0.147 0.32-0.327 0-0.555 0.1832-1.102 0.5323-1.566l0.0024-0.003c0.3762 0.117 0.7715 0.183 1.1776 0.183h2.624 0.6046 2.5508c0.429 0 0.847-0.071 1.243-0.199l0.027 0.044c0.333 0.439 0.516 0.987 0.516 1.541 0 0.18 0.143 0.327 0.32 0.327s0.32-0.147 0.32-0.327c0-0.664-0.211-1.318-0.577-1.836 1.014-0.517 1.813-1.446 2.146-2.6l0.273-0.948h0.559c0.177 0 0.32-0.146 0.32-0.3267v-0.6712c0-0.5402-0.431-0.9796-0.96-0.9796zm-4.292-5.4183h-2.1704c0.1384-0.478 0.5725-0.8279 1.0853-0.8279 0.5131 0 0.9471 0.35 1.0851 0.8279zm3.486 8.1588c-0.438 1.52-1.828 2.582-3.381 2.582h-2.5508-0.6046-2.624c-1.5094 0-2.8613-1.032-3.2872-2.51l-0.2408-0.835h12.909l-0.221 0.763zm1.126-1.4162h-14.72v-0.3447c0-0.1802 0.14352-0.3265 0.32-0.3265h14.08c0.177 0 0.32 0.1463 0.32 0.3265v0.3447z"/>
      <path id="Path" d="m7.937 7.127c0 0.1803 0.1433 0.3266 0.32 0.3266 0.1768 0 0.32-0.1463 0.32-0.3266v-0.3265c0-0.1803-0.1432-0.3265-0.32-0.3265-0.1767 0-0.32 0.1462-0.32 0.3265v0.3265z"/>
      <path id="Path" d="m7.937 5.8209c0 0.1802 0.1433 0.3265 0.32 0.3265 0.1768 0 0.32-0.1463 0.32-0.3265v-0.3265c0-0.1803-0.1432-0.3266-0.32-0.3266-0.1767 0-0.32 0.1462-0.32 0.3266v0.3265z"/>
      <path id="Path" d="m8.257 4.8413c0.1768 0 0.32-0.1461 0.32-0.3265v-0.3266c0-0.1802-0.1432-0.3265-0.32-0.3265-0.1767 0-0.32 0.1461-0.32 0.3265v0.3266c0 0.1802 0.1432 0.3265 0.32 0.3265z"/>
      <path id="Path" d="m10.658 7.127c0 0.1803 0.143 0.3266 0.32 0.3266s0.32-0.1463 0.32-0.3266v-0.3265c0-0.1803-0.143-0.3265-0.32-0.3265s-0.32 0.1462-0.32 0.3265v0.3265z"/>
      <path id="Path" d="m10.978 4.8413c0.177 0 0.32-0.1461 0.32-0.3265v-0.3266c0-0.1802-0.143-0.3265-0.32-0.3265s-0.32 0.1461-0.32 0.3265v0.3266c0 0.1802 0.143 0.3265 0.32 0.3265z"/>
      <path id="Path" d="m10.658 5.8209c0 0.1802 0.143 0.3265 0.32 0.3265s0.32-0.1463 0.32-0.3265v-0.3265c0-0.1803-0.143-0.3266-0.32-0.3266s-0.32 0.1462-0.32 0.3266v0.3265z"/>
      <path id="Path" d="m9.5723 4.8413c0.1768 0 0.32-0.1461 0.32-0.3265v-0.3266c0-0.1802-0.1432-0.3265-0.32-0.3265s-0.32 0.1461-0.32 0.3265v0.3266c0 0.1802 0.1431 0.3265 0.32 0.3265z"/>
      <path id="Path" d="m9.2523 7.127c0 0.1803 0.1432 0.3266 0.32 0.3266s0.32-0.1463 0.32-0.3266v-0.3265c0-0.1803-0.1432-0.3265-0.32-0.3265s-0.32 0.1462-0.32 0.3265v0.3265z"/>
      <path id="Path" d="m9.2523 5.8209c0 0.1802 0.1432 0.3265 0.32 0.3265s0.32-0.1463 0.32-0.3265v-0.3265c0-0.1803-0.1432-0.3266-0.32-0.3266s-0.32 0.1462-0.32 0.3266v0.3265z"/>
     </g>
    </g>
   </g>
  </g>
 </g>
</svg>
